images/16757973.svg

<?xml version="1.0" encoding="UTF-8"?>
<svg xmlns="http://www.w3.org/2000/svg" xmlns:xlink="http://www.w3.org/1999/xlink" width="300pt" height="300pt" viewBox="0 0 300 300" version="1.1">
<defs>
<g>
<symbol overflow="visible" id="glyph0-0">
<path style="stroke:none;" d="M 0.546875 1.9375 L 0.546875 -7.75 L 6.046875 -7.75 L 6.046875 1.9375 Z M 1.171875 1.328125 L 5.4375 1.328125 L 5.4375 -7.140625 L 1.171875 -7.140625 Z M 1.171875 1.328125 "/>
</symbol>
<symbol overflow="visible" id="glyph0-1">
<path style="stroke:none;" d="M 4.328125 -7.28125 C 3.546875 -7.28125 2.921875 -6.984375 2.453125 -6.390625 C 1.992188 -5.804688 1.765625 -5.007812 1.765625 -4 C 1.765625 -2.988281 1.992188 -2.1875 2.453125 -1.59375 C 2.921875 -1.007812 3.546875 -0.71875 4.328125 -0.71875 C 5.117188 -0.71875 5.742188 -1.007812 6.203125 -1.59375 C 6.660156 -2.1875 6.890625 -2.988281 6.890625 -4 C 6.890625 -5.007812 6.660156 -5.804688 6.203125 -6.390625 C 5.742188 -6.984375 5.117188 -7.28125 4.328125 -7.28125 Z M 4.328125 -8.171875 C 5.453125 -8.171875 6.351562 -7.789062 7.03125 -7.03125 C 7.707031 -6.28125 8.046875 -5.269531 8.046875 -4 C 8.046875 -2.738281 7.707031 -1.726562 7.03125 -0.96875 C 6.351562 -0.21875 5.453125 0.15625 4.328125 0.15625 C 3.203125 0.15625 2.300781 -0.21875 1.625 -0.96875 C 0.957031 -1.71875 0.625 -2.726562 0.625 -4 C 0.625 -5.269531 0.957031 -6.28125 1.625 -7.03125 C 2.300781 -7.789062 3.203125 -8.171875 4.328125 -8.171875 Z M 4.328125 -8.171875 "/>
</symbol>
<symbol overflow="visible" id="glyph0-2">
<path style="stroke:none;" d="M 1.078125 -8.015625 L 2.171875 -8.015625 L 2.171875 -4.734375 L 6.109375 -4.734375 L 6.109375 -8.015625 L 7.1875 -8.015625 L 7.1875 0 L 6.109375 0 L 6.109375 -3.8125 L 2.171875 -3.8125 L 2.171875 0 L 1.078125 0 Z M 1.078125 -8.015625 "/>
</symbol>
</g>
</defs>
<g id="surface44125">
<rect x="0" y="0" width="300" height="300" style="fill:rgb(100%,100%,100%);fill-opacity:1;stroke:none;"/>
<path style="fill:none;stroke-width:1;stroke-linecap:butt;stroke-linejoin:miter;stroke:rgb(0%,0%,0%);stroke-opacity:1;stroke-miterlimit:10;" d="M 187.972656 142.054688 L 187.972656 142.054688 M 190.242188 140.09375 L 189.433594 139.433594 M 192.511719 138.128906 L 190.894531 136.8125 M 194.78125 136.167969 L 192.355469 134.191406 M 197.050781 134.207031 L 193.816406 131.574219 M 199.320312 132.246094 L 195.277344 128.953125 M 201.589844 130.28125 L 196.738281 126.332031 M 203.859375 128.320312 L 198.199219 123.710938 M 206.128906 126.359375 L 199.660156 121.09375 M 207.777344 124.933594 L 200.722656 119.1875 "/>
<path style="fill:none;stroke-width:1.2;stroke-linecap:butt;stroke-linejoin:miter;stroke:rgb(0%,0%,0%);stroke-opacity:1;stroke-miterlimit:10;" d="M 187.972656 142.054688 L 178.796875 117.960938 "/>
<path style="fill:none;stroke-width:1.2;stroke-linecap:butt;stroke-linejoin:miter;stroke:rgb(0%,0%,0%);stroke-opacity:1;stroke-miterlimit:10;" d="M 171.695312 162.046875 L 187.972656 142.054688 "/>
<path style="fill:none;stroke-width:1.2;stroke-linecap:butt;stroke-linejoin:miter;stroke:rgb(0%,0%,0%);stroke-opacity:1;stroke-miterlimit:10;" d="M 213.425781 146.15625 L 187.972656 142.054688 "/>
<path style="fill:none;stroke-width:1.2;stroke-linecap:butt;stroke-linejoin:miter;stroke:rgb(0%,0%,0%);stroke-opacity:1;stroke-miterlimit:10;" d="M 178.796875 117.960938 L 153.34375 113.859375 "/>
<path style="fill:none;stroke-width:1.2;stroke-linecap:butt;stroke-linejoin:miter;stroke:rgb(0%,0%,0%);stroke-opacity:1;stroke-miterlimit:10;" d="M 153.34375 113.859375 L 137.066406 133.851562 "/>
<path style="fill:none;stroke-width:1.2;stroke-linecap:butt;stroke-linejoin:miter;stroke:rgb(0%,0%,0%);stroke-opacity:1;stroke-miterlimit:10;" d="M 137.066406 133.851562 L 111.609375 129.75 "/>
<path style="fill:none;stroke-width:1.2;stroke-linecap:butt;stroke-linejoin:miter;stroke:rgb(0%,0%,0%);stroke-opacity:1;stroke-miterlimit:10;" d="M 146.238281 157.945312 L 137.066406 133.851562 "/>
<path style="fill:none;stroke-width:1.2;stroke-linecap:butt;stroke-linejoin:miter;stroke:rgb(0%,0%,0%);stroke-opacity:1;stroke-miterlimit:10;" d="M 111.609375 129.75 L 95.332031 149.746094 "/>
<path style="fill:none;stroke-width:1;stroke-linecap:butt;stroke-linejoin:miter;stroke:rgb(0%,0%,0%);stroke-opacity:1;stroke-miterlimit:10;" d="M 111.609375 129.75 L 111.609375 129.75 M 113.878906 127.789062 L 113.070312 127.132812 M 116.148438 125.828125 L 114.53125 124.511719 M 118.417969 123.867188 L 115.992188 121.890625 M 120.6875 121.902344 L 117.453125 119.269531 M 122.960938 119.941406 L 118.917969 116.648438 M 125.230469 117.980469 L 120.378906 114.03125 M 127.5 116.019531 L 121.839844 111.410156 M 129.769531 114.054688 L 123.300781 108.789062 M 131.417969 112.628906 L 124.359375 106.886719 "/>
<path style="fill:none;stroke-width:1.2;stroke-linecap:butt;stroke-linejoin:miter;stroke:rgb(0%,0%,0%);stroke-opacity:1;stroke-miterlimit:10;" d="M 102.4375 105.65625 L 111.609375 129.75 "/>
<path style="fill:none;stroke-width:1.2;stroke-linecap:butt;stroke-linejoin:miter;stroke:rgb(0%,0%,0%);stroke-opacity:1;stroke-miterlimit:10;" d="M 95.332031 149.746094 L 104.507812 173.839844 "/>
<path style="fill:none;stroke-width:1.2;stroke-linecap:butt;stroke-linejoin:miter;stroke:rgb(0%,0%,0%);stroke-opacity:1;stroke-miterlimit:10;" d="M 95.332031 149.746094 L 69.878906 145.644531 "/>
<path style="fill:none;stroke-width:1.2;stroke-linecap:butt;stroke-linejoin:miter;stroke:rgb(0%,0%,0%);stroke-opacity:1;stroke-miterlimit:10;" d="M 104.507812 173.839844 L 129.960938 177.9375 "/>
<path style="fill:none;stroke-width:1.2;stroke-linecap:butt;stroke-linejoin:miter;stroke:rgb(0%,0%,0%);stroke-opacity:1;stroke-miterlimit:10;" d="M 127.128906 179.019531 L 131.714844 191.066406 "/>
<path style="fill:none;stroke-width:1.2;stroke-linecap:butt;stroke-linejoin:miter;stroke:rgb(100%,0%,0%);stroke-opacity:1;stroke-miterlimit:10;" d="M 131.714844 191.066406 L 136.300781 203.113281 "/>
<path style="fill:none;stroke-width:1.2;stroke-linecap:butt;stroke-linejoin:miter;stroke:rgb(0%,0%,0%);stroke-opacity:1;stroke-miterlimit:10;" d="M 132.796875 176.859375 L 137.382812 188.90625 "/>
<path style="fill:none;stroke-width:1.2;stroke-linecap:butt;stroke-linejoin:miter;stroke:rgb(100%,0%,0%);stroke-opacity:1;stroke-miterlimit:10;" d="M 137.382812 188.90625 L 141.972656 200.953125 "/>
<path style="fill:none;stroke-width:1.2;stroke-linecap:butt;stroke-linejoin:miter;stroke:rgb(0%,0%,0%);stroke-opacity:1;stroke-miterlimit:10;" d="M 129.960938 177.9375 L 146.238281 157.945312 "/>
<path style=" stroke:none;fill-rule:nonzero;fill:rgb(100%,100%,100%);fill-opacity:1;" d="M 135.136719 195.53125 L 144.136719 195.53125 L 144.136719 208.53125 L 135.136719 208.53125 Z M 135.136719 195.53125 "/>
<g style="fill:rgb(100%,0%,0%);fill-opacity:1;">
  <use xlink:href="#glyph0-1" x="135.136719" y="205.432617"/>
</g>
<path style="fill:none;stroke-width:1.2;stroke-linecap:butt;stroke-linejoin:miter;stroke:rgb(0%,0%,0%);stroke-opacity:1;stroke-miterlimit:10;" d="M 146.238281 157.945312 L 171.695312 162.046875 "/>
<path style=" stroke:none;fill-rule:nonzero;fill:rgb(0%,0%,0%);fill-opacity:1;" d="M 146.238281 157.945312 L 143.355469 172.09375 L 152.390625 171.007812 Z M 146.238281 157.945312 "/>
<path style="fill:none;stroke-width:1.2;stroke-linecap:butt;stroke-linejoin:miter;stroke:rgb(0%,0%,0%);stroke-opacity:1;stroke-miterlimit:10;" d="M 171.695312 162.046875 L 180.867188 186.140625 "/>
<path style="fill:none;stroke-width:1;stroke-linecap:butt;stroke-linejoin:miter;stroke:rgb(0%,0%,0%);stroke-opacity:1;stroke-miterlimit:10;" d="M 171.695312 162.046875 L 171.695312 162.046875 M 169.425781 164.007812 L 170.234375 164.667969 M 167.15625 165.96875 L 168.773438 167.289062 M 164.882812 167.933594 L 167.308594 169.90625 M 162.613281 169.894531 L 165.847656 172.527344 M 160.34375 171.855469 L 164.386719 175.148438 M 158.074219 173.816406 L 162.925781 177.769531 M 155.804688 175.78125 L 161.464844 180.386719 M 153.535156 177.742188 L 160.003906 183.007812 M 151.886719 179.167969 L 158.945312 184.914062 "/>
<path style="fill:none;stroke-width:1.2;stroke-linecap:butt;stroke-linejoin:miter;stroke:rgb(0%,0%,0%);stroke-opacity:1;stroke-miterlimit:10;" d="M 180.867188 186.140625 L 168.140625 184.089844 "/>
<path style="fill:none;stroke-width:1.2;stroke-linecap:butt;stroke-linejoin:miter;stroke:rgb(100%,0%,0%);stroke-opacity:1;stroke-miterlimit:10;" d="M 168.140625 184.089844 L 155.414062 182.039062 "/>
<path style="fill:none;stroke-width:1.2;stroke-linecap:butt;stroke-linejoin:miter;stroke:rgb(0%,0%,0%);stroke-opacity:1;stroke-miterlimit:10;" d="M 180.867188 186.140625 L 206.324219 190.242188 "/>
<path style=" stroke:none;fill-rule:nonzero;fill:rgb(100%,100%,100%);fill-opacity:1;" d="M 151.414062 175.539062 L 160.414062 175.539062 L 160.414062 188.539062 L 151.414062 188.539062 Z M 151.414062 175.539062 "/>
<g style="fill:rgb(100%,0%,0%);fill-opacity:1;">
  <use xlink:href="#glyph0-1" x="151.414062" y="185.44043"/>
</g>
<path style="fill:none;stroke-width:1.2;stroke-linecap:butt;stroke-linejoin:miter;stroke:rgb(0%,0%,0%);stroke-opacity:1;stroke-miterlimit:10;" d="M 203.488281 191.320312 L 208.074219 203.367188 "/>
<path style="fill:none;stroke-width:1.2;stroke-linecap:butt;stroke-linejoin:miter;stroke:rgb(100%,0%,0%);stroke-opacity:1;stroke-miterlimit:10;" d="M 208.074219 203.367188 L 212.664062 215.414062 "/>
<path style="fill:none;stroke-width:1.2;stroke-linecap:butt;stroke-linejoin:miter;stroke:rgb(0%,0%,0%);stroke-opacity:1;stroke-miterlimit:10;" d="M 209.15625 189.164062 L 213.746094 201.210938 "/>
<path style="fill:none;stroke-width:1.2;stroke-linecap:butt;stroke-linejoin:miter;stroke:rgb(100%,0%,0%);stroke-opacity:1;stroke-miterlimit:10;" d="M 213.746094 201.210938 L 218.332031 213.257812 "/>
<path style="fill:none;stroke-width:1.2;stroke-linecap:butt;stroke-linejoin:miter;stroke:rgb(0%,0%,0%);stroke-opacity:1;stroke-miterlimit:10;" d="M 206.324219 190.242188 L 214.460938 180.246094 "/>
<path style="fill:none;stroke-width:1.2;stroke-linecap:butt;stroke-linejoin:miter;stroke:rgb(100%,0%,0%);stroke-opacity:1;stroke-miterlimit:10;" d="M 214.460938 180.246094 L 222.601562 170.25 "/>
<path style=" stroke:none;fill-rule:nonzero;fill:rgb(100%,100%,100%);fill-opacity:1;" d="M 211.496094 207.835938 L 220.496094 207.835938 L 220.496094 220.835938 L 211.496094 220.835938 Z M 211.496094 207.835938 "/>
<g style="fill:rgb(100%,0%,0%);fill-opacity:1;">
  <use xlink:href="#glyph0-1" x="211.496094" y="217.737305"/>
</g>
<path style="fill:none;stroke-width:1.2;stroke-linecap:butt;stroke-linejoin:miter;stroke:rgb(100%,0%,0%);stroke-opacity:1;stroke-miterlimit:10;" d="M 222.601562 170.25 L 218.011719 158.203125 "/>
<path style="fill:none;stroke-width:1.2;stroke-linecap:butt;stroke-linejoin:miter;stroke:rgb(0%,0%,0%);stroke-opacity:1;stroke-miterlimit:10;" d="M 218.011719 158.203125 L 213.425781 146.15625 "/>
<path style=" stroke:none;fill-rule:nonzero;fill:rgb(100%,100%,100%);fill-opacity:1;" d="M 218.601562 163.75 L 227.601562 163.75 L 227.601562 176.75 L 218.601562 176.75 Z M 218.601562 163.75 "/>
<g style="fill:rgb(100%,0%,0%);fill-opacity:1;">
  <use xlink:href="#glyph0-1" x="218.601562" y="173.651367"/>
</g>
<path style="fill:none;stroke-width:1.2;stroke-linecap:butt;stroke-linejoin:miter;stroke:rgb(0%,0%,0%);stroke-opacity:1;stroke-miterlimit:10;" d="M 213.425781 146.15625 L 229.703125 126.160156 "/>
<path style="fill:none;stroke-width:1.2;stroke-linecap:butt;stroke-linejoin:miter;stroke:rgb(0%,0%,0%);stroke-opacity:1;stroke-miterlimit:10;" d="M 229.703125 126.160156 L 223.097656 101.242188 "/>
<path style="fill:none;stroke-width:1.2;stroke-linecap:butt;stroke-linejoin:miter;stroke:rgb(0%,0%,0%);stroke-opacity:1;stroke-miterlimit:10;" d="M 234.90625 122.113281 L 229.621094 102.179688 "/>
<path style="fill:none;stroke-width:1.2;stroke-linecap:butt;stroke-linejoin:miter;stroke:rgb(0%,0%,0%);stroke-opacity:1;stroke-miterlimit:10;" d="M 255.445312 127.578125 L 229.703125 126.160156 "/>
<path style="fill:none;stroke-width:1.2;stroke-linecap:butt;stroke-linejoin:miter;stroke:rgb(0%,0%,0%);stroke-opacity:1;stroke-miterlimit:10;" d="M 223.097656 101.242188 L 233.925781 94.25 "/>
<path style="fill:none;stroke-width:1.2;stroke-linecap:butt;stroke-linejoin:miter;stroke:rgb(100%,0%,0%);stroke-opacity:1;stroke-miterlimit:10;" d="M 233.925781 94.25 L 244.757812 87.257812 "/>
<path style="fill:none;stroke-width:1.2;stroke-linecap:butt;stroke-linejoin:miter;stroke:rgb(100%,0%,0%);stroke-opacity:1;stroke-miterlimit:10;" d="M 244.757812 87.257812 L 254.753906 95.394531 "/>
<path style="fill:none;stroke-width:1.2;stroke-linecap:butt;stroke-linejoin:miter;stroke:rgb(0%,0%,0%);stroke-opacity:1;stroke-miterlimit:10;" d="M 254.753906 95.394531 L 264.75 103.535156 "/>
<path style=" stroke:none;fill-rule:nonzero;fill:rgb(100%,100%,100%);fill-opacity:1;" d="M 240.757812 80.757812 L 249.757812 80.757812 L 249.757812 93.757812 L 240.757812 93.757812 Z M 240.757812 80.757812 "/>
<g style="fill:rgb(100%,0%,0%);fill-opacity:1;">
  <use xlink:href="#glyph0-1" x="240.757812" y="90.65918"/>
</g>
<path style="fill:none;stroke-width:1.2;stroke-linecap:butt;stroke-linejoin:miter;stroke:rgb(0%,0%,0%);stroke-opacity:1;stroke-miterlimit:10;" d="M 264.75 103.535156 L 255.445312 127.578125 "/>
<path style="fill:none;stroke-width:1.2;stroke-linecap:butt;stroke-linejoin:miter;stroke:rgb(0%,0%,0%);stroke-opacity:1;stroke-miterlimit:10;" d="M 258.160156 103.75 L 250.71875 122.984375 "/>
<path style="fill:none;stroke-width:1.2;stroke-linecap:butt;stroke-linejoin:miter;stroke:rgb(0%,0%,0%);stroke-opacity:1;stroke-miterlimit:10;" d="M 69.878906 145.644531 L 60.703125 121.550781 "/>
<path style="fill:none;stroke-width:1.2;stroke-linecap:butt;stroke-linejoin:miter;stroke:rgb(0%,0%,0%);stroke-opacity:1;stroke-miterlimit:10;" d="M 69.878906 145.644531 L 44.558594 150.496094 "/>
<path style="fill:none;stroke-width:1.2;stroke-linecap:butt;stroke-linejoin:miter;stroke:rgb(0%,0%,0%);stroke-opacity:1;stroke-miterlimit:10;" d="M 69.878906 145.644531 L 70.261719 171.421875 "/>
<path style="fill:none;stroke-width:1.2;stroke-linecap:butt;stroke-linejoin:miter;stroke:rgb(0%,0%,0%);stroke-opacity:1;stroke-miterlimit:10;" d="M 60.703125 121.550781 L 76.980469 101.554688 "/>
<path style="fill:none;stroke-width:1.2;stroke-linecap:butt;stroke-linejoin:miter;stroke:rgb(0%,0%,0%);stroke-opacity:1;stroke-miterlimit:10;" d="M 60.703125 121.550781 L 47.976562 119.5 "/>
<path style="fill:none;stroke-width:1.2;stroke-linecap:butt;stroke-linejoin:miter;stroke:rgb(100%,0%,0%);stroke-opacity:1;stroke-miterlimit:10;" d="M 47.976562 119.5 L 35.25 117.449219 "/>
<path style="fill:none;stroke-width:1.2;stroke-linecap:butt;stroke-linejoin:miter;stroke:rgb(0%,0%,0%);stroke-opacity:1;stroke-miterlimit:10;" d="M 76.980469 101.554688 L 102.4375 105.65625 "/>
<path style="fill:none;stroke-width:1.2;stroke-linecap:butt;stroke-linejoin:miter;stroke:rgb(0%,0%,0%);stroke-opacity:1;stroke-miterlimit:10;" d="M 104.789062 107.574219 L 112.925781 97.574219 "/>
<path style="fill:none;stroke-width:1.2;stroke-linecap:butt;stroke-linejoin:miter;stroke:rgb(100%,0%,0%);stroke-opacity:1;stroke-miterlimit:10;" d="M 112.925781 97.574219 L 121.066406 87.578125 "/>
<path style="fill:none;stroke-width:1.2;stroke-linecap:butt;stroke-linejoin:miter;stroke:rgb(0%,0%,0%);stroke-opacity:1;stroke-miterlimit:10;" d="M 100.082031 103.742188 L 108.222656 93.746094 "/>
<path style="fill:none;stroke-width:1.2;stroke-linecap:butt;stroke-linejoin:miter;stroke:rgb(100%,0%,0%);stroke-opacity:1;stroke-miterlimit:10;" d="M 108.222656 93.746094 L 116.363281 83.75 "/>
<path style=" stroke:none;fill-rule:nonzero;fill:rgb(100%,100%,100%);fill-opacity:1;" d="M 114.714844 79.164062 L 123.714844 79.164062 L 123.714844 92.164062 L 114.714844 92.164062 Z M 114.714844 79.164062 "/>
<g style="fill:rgb(100%,0%,0%);fill-opacity:1;">
  <use xlink:href="#glyph0-1" x="114.714844" y="89.06543"/>
</g>
<path style=" stroke:none;fill-rule:nonzero;fill:rgb(100%,100%,100%);fill-opacity:1;" d="M 18.25 110.949219 L 35.25 110.949219 L 35.25 123.949219 L 18.25 123.949219 Z M 18.25 110.949219 "/>
<g style="fill:rgb(100%,0%,0%);fill-opacity:1;">
  <use xlink:href="#glyph0-2" x="18.25" y="120.850586"/>
  <use xlink:href="#glyph0-1" x="26.274414" y="120.850586"/>
</g>
</g>
</svg>

<svg xmlns="http://www.w3.org/2000/svg" xmlns:xlink="http://www.w3.org/1999/xlink" width="300pt" height="300pt" viewBox="0 0 300 300"><defs><symbol overflow="visible"><path d="M.547 1.938V-7.75h5.5v9.688zm.625-.61h4.266v-8.47H1.171zm0 0"/></symbol><symbol overflow="visible" id="a"><path d="M4.328-7.28c-.78 0-1.406.296-1.875.89-.46.585-.687 1.382-.687 2.39 0 1.012.226 1.813.687 2.406.47.586 1.094.875 1.875.875.79 0 1.414-.288 1.875-.874.457-.593.688-1.394.688-2.406 0-1.008-.23-1.805-.687-2.39-.46-.594-1.086-.89-1.875-.89zm0-.892c1.125 0 2.024.383 2.703 1.14C7.708-6.28 8.048-5.27 8.048-4c0 1.262-.34 2.273-1.016 3.03C6.353-.22 5.454.157 4.33.157S2.3-.22 1.625-.97c-.668-.75-1-1.757-1-3.03 0-1.27.332-2.28 1-3.03.676-.76 1.578-1.142 2.703-1.142zm0 0"/></symbol><symbol overflow="visible" id="b"><path d="M1.078-8.016h1.094v3.282H6.11v-3.282h1.077V0H6.11v-3.813H2.17V0H1.078zm0 0"/></symbol></defs><g><path fill="#fff" d="M0 0h300v300H0z"/><path d="M187.973 142.055m2.27-1.96l-.81-.66m3.08-1.306l-1.618-1.317m3.886-.645l-2.425-1.977m4.696.017l-3.234-2.633m5.504.672l-4.043-3.293m6.313 1.328l-4.852-3.948m7.12 1.988l-5.66-4.61m7.93 2.65l-6.468-5.266m8.117 3.84l-7.054-5.746" stroke="#000" stroke-miterlimit="10" fill="none"/><path d="M187.973 142.055l-9.176-24.094M171.695 162.047l16.278-19.992M213.426 146.156l-25.453-4.1M178.797 117.96l-25.453-4.1M153.344 113.86l-16.278 19.992M137.066 133.852l-25.457-4.102M146.238 157.945l-9.172-24.093M111.61 129.75L95.33 149.746" stroke-width="1.2" stroke="#000" stroke-miterlimit="10" fill="none"/><path d="M111.61 129.75m2.27-1.96l-.81-.657m3.078-1.305l-1.617-1.316m3.888-.645l-2.426-1.976m4.695.012l-3.234-2.632m5.508.67l-4.042-3.292m6.312 1.332l-4.85-3.95m7.12 1.99l-5.66-4.61m7.93 2.645l-6.47-5.266m8.118 3.84l-7.06-5.743" stroke="#000" stroke-miterlimit="10" fill="none"/><path d="M102.438 105.656l9.17 24.094M95.332 149.746l9.176 24.094M95.332 149.746l-25.453-4.1M104.508 173.84l25.453 4.097M127.13 179.02l4.585 12.046" stroke-width="1.2" stroke="#000" stroke-miterlimit="10" fill="none"/><path d="M131.715 191.066l4.586 12.047" stroke-width="1.2" stroke="#f00" stroke-miterlimit="10" fill="none"/><path d="M132.797 176.86l4.586 12.046" stroke-width="1.2" stroke="#000" stroke-miterlimit="10" fill="none"/><path d="M137.383 188.906l4.59 12.047" stroke-width="1.2" stroke="#f00" stroke-miterlimit="10" fill="none"/><path d="M129.96 177.938l16.278-19.993" stroke-width="1.2" stroke="#000" stroke-miterlimit="10" fill="none"/><path d="M135.137 195.53h9v13h-9zm0 0" fill="#fff"/><use xlink:href="#a" x="135.137" y="205.433" fill="#f00"/><path d="M146.238 157.945l25.457 4.102" stroke-width="1.2" stroke="#000" stroke-miterlimit="10" fill="none"/><path d="M146.238 157.945l-2.883 14.15 9.036-1.087zm0 0"/><path d="M171.695 162.047l9.172 24.094" stroke-width="1.2" stroke="#000" stroke-miterlimit="10" fill="none"/><path d="M171.695 162.047m-2.27 1.96l.81.66m-3.08 1.302l1.618 1.32m-3.89.644l2.426 1.972m-4.697-.01l3.235 2.63m-5.504-.67l4.043 3.292m-6.313-1.332l4.852 3.954m-7.12-1.99l5.66 4.607m-7.93-2.645l6.468 5.266m-8.117-3.84l7.058 5.746" stroke="#000" stroke-miterlimit="10" fill="none"/><path d="M180.867 186.14l-12.726-2.05" stroke-width="1.2" stroke="#000" stroke-miterlimit="10" fill="none"/><path d="M168.14 184.09l-12.726-2.05" stroke-width="1.2" stroke="#f00" stroke-miterlimit="10" fill="none"/><path d="M180.867 186.14l25.457 4.102" stroke-width="1.2" stroke="#000" stroke-miterlimit="10" fill="none"/><path d="M151.414 175.54h9v13h-9zm0 0" fill="#fff"/><use xlink:href="#a" x="151.414" y="185.44" fill="#f00"/><path d="M203.488 191.32l4.586 12.047" stroke-width="1.2" stroke="#000" stroke-miterlimit="10" fill="none"/><path d="M208.074 203.367l4.59 12.047" stroke-width="1.2" stroke="#f00" stroke-miterlimit="10" fill="none"/><path d="M209.156 189.164l4.59 12.047" stroke-width="1.2" stroke="#000" stroke-miterlimit="10" fill="none"/><path d="M213.746 201.21l4.586 12.048" stroke-width="1.2" stroke="#f00" stroke-miterlimit="10" fill="none"/><path d="M206.324 190.242l8.137-9.996" stroke-width="1.2" stroke="#000" stroke-miterlimit="10" fill="none"/><path d="M214.46 180.246l8.142-9.996" stroke-width="1.2" stroke="#f00" stroke-miterlimit="10" fill="none"/><path d="M211.496 207.836h9v13h-9zm0 0" fill="#fff"/><use xlink:href="#a" x="211.496" y="217.737" fill="#f00"/><path d="M222.602 170.25l-4.59-12.047" stroke-width="1.2" stroke="#f00" stroke-miterlimit="10" fill="none"/><path d="M218.012 158.203l-4.586-12.047" stroke-width="1.2" stroke="#000" stroke-miterlimit="10" fill="none"/><path d="M218.602 163.75h9v13h-9zm0 0" fill="#fff"/><use xlink:href="#a" x="218.602" y="173.651" fill="#f00"/><path d="M213.426 146.156l16.277-19.996M229.703 126.16l-6.605-24.918M234.906 122.113l-5.285-19.933M255.445 127.578l-25.742-1.418M223.098 101.242l10.828-6.992" stroke-width="1.2" stroke="#000" stroke-miterlimit="10" fill="none"/><path d="M233.926 94.25l10.832-6.992M244.758 87.258l9.996 8.137" stroke-width="1.2" stroke="#f00" stroke-miterlimit="10" fill="none"/><path d="M254.754 95.395l9.996 8.14" stroke-width="1.2" stroke="#000" stroke-miterlimit="10" fill="none"/><path d="M240.758 80.758h9v13h-9zm0 0" fill="#fff"/><use xlink:href="#a" x="240.758" y="90.659" fill="#f00"/><path d="M264.75 103.535l-9.305 24.043M258.16 103.75l-7.44 19.234M69.88 145.645l-9.177-24.094M69.88 145.645l-25.32 4.85M69.88 145.645l.382 25.777M60.703 121.55l16.277-19.995M60.703 121.55l-12.726-2.05" stroke-width="1.2" stroke="#000" stroke-miterlimit="10" fill="none"/><path d="M47.977 119.5l-12.727-2.05" stroke-width="1.2" stroke="#f00" stroke-miterlimit="10" fill="none"/><path d="M76.98 101.555l25.457 4.1M104.79 107.574l8.136-10" stroke-width="1.2" stroke="#000" stroke-miterlimit="10" fill="none"/><path d="M112.926 97.574l8.14-9.996" stroke-width="1.2" stroke="#f00" stroke-miterlimit="10" fill="none"/><path d="M100.082 103.742l8.14-9.996" stroke-width="1.2" stroke="#000" stroke-miterlimit="10" fill="none"/><path d="M108.223 93.746l8.14-9.996" stroke-width="1.2" stroke="#f00" stroke-miterlimit="10" fill="none"/><path d="M114.715 79.164h9v13h-9zm0 0" fill="#fff"/><use xlink:href="#a" x="114.715" y="89.065" fill="#f00"/><path d="M18.25 110.95h17v13h-17zm0 0" fill="#fff"/><g fill="#f00"><use xlink:href="#b" x="18.25" y="120.851"/><use xlink:href="#a" x="26.274" y="120.851"/></g></g></svg>
